share/icons/Flat-Remix-Blue-Dark/mimetypes/scalable/application-rss.svg

<svg xmlns="http://www.w3.org/2000/svg" xmlns:xlink="http://www.w3.org/1999/xlink" width="36pt" height="36pt" version="1.1" viewBox="0 0 36 36"> <defs> <image id="image6" width="36" height="36" xlink:href="data:image/png;base64,iVBORw0KGgoAAAANSUhEUgAAACQAAAAkCAYAAADhAJiYAAAABmJLR0QA/wD/AP+gvaeTAAAAnUlEQVRYhe3T2QrCMBBG4dMN41IKvv8jeqcILqRedApTEYkQ05v/g5DSQji0U5Dvqj+c19g+AtFWsiZzUAtsgK1dj26tEtQBB2CwKIDnL1Ft5qAaCMDR4oLdPwMPEj5f7qDKztwDvQtKjsod5KN2b0Fz1K10kI/qPjwrGjQPb7S9ZnpT/m87lQyKwB24AheW8xKY5kpEREREREQk3Qva+R9pFJBykgAAAABJRU5ErkJggg=="/> </defs> <g> <path style="fill:rgb(89.411%,18.823%,18.823%)" d="M 7.347656 3.152344 C 6.675781 3.152344 6.042969 3.785156 6.042969 4.457031 L 6.042969 31.847656 C 6.042969 32.480469 6.714844 33.152344 7.347656 33.152344 L 28.21875 33.152344 C 28.851562 33.152344 29.523438 32.480469 29.523438 31.847656 L 29.523438 11.632812 L 21.042969 3.152344 Z M 7.347656 3.152344"/> <use xlink:href="#image6"/> <path style="fill:rgb(88.235%,36.862%,36.862%)" d="M 21.042969 3.152344 L 29.523438 11.632812 L 22.347656 11.632812 C 21.714844 11.632812 21.042969 10.960938 21.042969 10.328125 Z M 21.042969 3.152344"/> <path style="fill:rgb(100.000%,100.000%,100.000%)" d="M 11.5625 23.089844 C 11.5625 22.6875 11.699219 22.351562 11.976562 22.082031 C 12.253906 21.804688 12.589844 21.664062 12.992188 21.664062 C 13.382812 21.664062 13.710938 21.804688 13.984375 22.082031 C 14.261719 22.351562 14.398438 22.6875 14.398438 23.089844 C 14.398438 23.480469 14.261719 23.8125 13.984375 24.089844 C 13.710938 24.363281 13.382812 24.5 12.992188 24.5 C 12.589844 24.5 12.253906 24.363281 11.976562 24.089844 C 11.699219 23.820312 11.5625 23.484375 11.5625 23.089844 M 11.476562 16.660156 L 11.476562 19.027344 C 14.503906 19.027344 16.964844 21.492188 16.964844 24.523438 L 19.339844 24.523438 C 19.339844 20.179688 15.8125 16.660156 11.480469 16.660156 Z M 11.484375 11.480469 L 11.484375 14.097656 C 17.230469 14.097656 21.894531 18.765625 21.894531 24.519531 L 24.523438 24.519531 C 24.523438 17.316406 18.675781 11.480469 11.480469 11.480469 Z M 11.484375 11.480469"/> </g> </svg>

<svg width="36pt" height="36pt" version="1.1" viewBox="0 0 36 36" xmlns="http://www.w3.org/2000/svg"><defs><filter id="a" x="-.192" y="-.192" width="1.384" height="1.384" color-interpolation-filters="sRGB"><feGaussianBlur stdDeviation="0.67843748"/></filter></defs><path d="m7.3477 3.9022c-0.67188 0-1.3047 0.63281-1.3047 1.3047v27.391c0 0.63281 0.67188 1.3047 1.3047 1.3047h20.871c0.63281 0 1.3047-0.67188 1.3047-1.3047v-20.215l-8.4805-8.4805z" opacity=".3"/><path d="m7.3477 3.1523c-0.67188 0-1.3047 0.63281-1.3047 1.3047v27.391c0 0.63281 0.67188 1.3047 1.3047 1.3047h20.871c0.63281 0 1.3047-0.67188 1.3047-1.3047v-20.215l-8.4805-8.4805z" fill="#e32f2f"/><path d="m20.668 3.5272 8.4805 8.4805h-7.1758c-0.63281 0-1.3047-0.67187-1.3047-1.3047z" filter="url(#a)" opacity=".2"/><path d="m21.043 3.1523 8.4805 8.4805h-7.1758c-0.63281 0-1.3047-0.67187-1.3047-1.3047z" fill="#e05d5d"/><path d="m11.562 23.09c0-0.40234 0.13672-0.73828 0.41406-1.0078 0.27734-0.27734 0.61328-0.41797 1.0156-0.41797 0.39062 0 0.71875 0.14063 0.99219 0.41797 0.27734 0.26953 0.41406 0.60547 0.41406 1.0078 0 0.39062-0.13672 0.72266-0.41406 1-0.27344 0.27344-0.60156 0.41016-0.99219 0.41016-0.40234 0-0.73828-0.13672-1.0156-0.41016-0.27734-0.26953-0.41406-0.60547-0.41406-1m-0.085938-6.4297v2.3672c3.0273 0 5.4883 2.4648 5.4883 5.4961h2.375c0-4.3438-3.5273-7.8633-7.8594-7.8633zm0.007813-5.1797v2.6172c5.7461 0 10.41 4.668 10.41 10.422h2.6289c0-7.2031-5.8477-13.039-13.043-13.039z" fill="#fff"/></svg>
